X:1
T:There’ll Be Room Enough
T:John B. Vaughan (1862-1918)
T:There’ll Be Room Enough
T:Public Domain
T:Public Domain
C:John B. Vaughan (1862-1918)
Z:Public Domain
%%score 1 ( 2 3 )
L:1/8
M:3/4
K:C
V:1 treble 
V:2 bass 
V:3 bass 
V:1
 [CE]>[DF] | [EG]3 [EG] [FA]>[EG] | [CE] [EG]3 [Ec]>[Fd] | [Ge]3 [Gd] [Fc]>[FA] | [EG]4 [CE]>[DF] | %5
w: 1.~There’ll be|room e- nough in|Heav- en, There’ll be|room e- nough for|me, If I|
w: 2.~There’ll be|room e- nough in|Heav- en, In those|man- sions bright and|fair, Which the|
w: 3.~There’ll be|room e- nough in|Heav- en, With the|ran- somed gone be-|fore, If we|
 [EG]3 [EG] [FA]>[EG] | [CE] [EG]3 [Ec]>[Fd] | [Ge]3 [Fd] [Ec]>[DB] | [Ec]4 || %9
w: bear the cross of|Je- sus, And a|faith- ful fol- lower|be.|
w: might- y King of|glor- y Has gone|thi- ther to pre-|pare.|
w: keep the nar- row|path- way, En- tering|in thro’ Christ the|door.|
"^Refrain" [DB]>[Ec] | [Fd]3 [Ge] [Fd]>[Ec] | [EG] [Ec]3 [Ec]>[Fd] | [Ge]3 [Gd] [Gc]>[Ge] | %13
w: ||||
w: ||||
w: ||||
 [Gd]4 [CE]>[DF] | [EG]3 [EG] [FA]>[EG] | [CE] [EG]3 [Ec]>[Fd] | [Ge]3 [Fd] [Ec]>[DB] | [Ec]4 |] %18
w: |||||
w: |||||
w: |||||
V:2
 [C,G,]>[C,G,] | [C,C]3 [C,C] [C,C]>[C,C] | [C,G,] [C,C]3 [C,G,]>[C,G,] | %3
w: ~ ~|~ ~ ~ ~|~ ~ ~ ~|
 [C,C]3 [E,C] [F,A,]>[F,C] | [C,C]4 [C,G,]>[C,G,] | [C,C]3 [C,C] [C,C]>[C,C] | %6
w: ~ ~ ~ ~|~ ~ ~|~ ~ ~ ~|
 [C,G,] [C,C]3 [E,C]>[G,B,] | C3 [F,A,] G,>[G,,G,] | [C,G,]4 || G,>G, | G,3 [G,C] G,>G, | %11
w: ~ ~ ~ ~|~ ~ ~ ~|be|room e-|Heav- en, There’ll be|
 [C,C] [C,G,]3 [E,G,]>[G,B,] | C3 [G,B,] [E,C]>[C,C] | [G,B,]4 [C,G,]>[C,G,] | %14
w: for me. If I|bear the cross of|sus, And a|
 [C,C]3 [C,C] [C,C]>[C,C] | [C,G,] [C,C]3 [E,C]>[G,B,] | C3 [F,A,] G,>[G,,G,] | [C,G,]4 |] %18
w: faith- ful fol- lower|be. * * *|||
V:3
 x2 | x6 | x6 | x6 | x6 | x6 | x6 | C3 G,3/2 x3/2 | x4 || G,>G, | G,3 G,>G, x | x6 | C3 x3 | x6 | %14
w: |||||||~ There’ll||nough in|room e- nough||Je-||
 x6 | x6 | C3 G,3/2 x3/2 | x4 |] %18
w: ||||

